static/assets/items/dormant-cyst.svg

<?xml version="1.0" encoding="UTF-8" standalone="no"?>
<!-- Created with Inkscape (http://www.inkscape.org/) -->

<svg
   version="1.1"
   id="svg10536"
   width="32"
   height="32"
   viewBox="0 0 32 32"
   sodipodi:docname="dormant-cyst.svg"
   inkscape:version="1.2 (dc2aedaf03, 2022-05-15)"
   xmlns:inkscape="http://www.inkscape.org/namespaces/inkscape"
   xmlns:sodipodi="http://sodipodi.sourceforge.net/DTD/sodipodi-0.dtd"
   xmlns="http://www.w3.org/2000/svg"
   xmlns:svg="http://www.w3.org/2000/svg">
  <defs
     id="defs10540" />
  <sodipodi:namedview
     id="namedview10538"
     pagecolor="#505050"
     bordercolor="#eeeeee"
     borderopacity="1"
     inkscape:showpageshadow="0"
     inkscape:pageopacity="0"
     inkscape:pagecheckerboard="0"
     inkscape:deskcolor="#505050"
     showgrid="false"
     inkscape:zoom="25.4375"
     inkscape:cx="7.1744472"
     inkscape:cy="16.019656"
     inkscape:window-width="1920"
     inkscape:window-height="1001"
     inkscape:window-x="-9"
     inkscape:window-y="-9"
     inkscape:window-maximized="1"
     inkscape:current-layer="g10542" />
  <g
     inkscape:groupmode="layer"
     inkscape:label="Image"
     id="g10542">
    <g
       id="g10546">
      <path
         style="fill:#f6bb64;fill-opacity:1"
         d="M 11,19.5 Q 11.25,19.25 11.625,19.125 12,19 12.5,19 q 0.5,0 1,0 0.5,0 1,0 0.5,0 1,0 0.5,0 0.875,0.125 0.375,0.125 0.625,0.375 0.25,0.25 0.5,0.5 0.25,0.25 0.5,0.5 0.25,0.25 0.5,0.5 0.25,0.25 0.375,0.625 Q 19,22 19,22.5 19,23 18.875,23.375 18.75,23.75 18.5,24 18.25,24.25 18,24.5 17.75,24.75 17.5,25 17.25,25.25 17,25.5 16.75,25.75 16.375,25.875 16,26 15.5,26 15,26 14.5,26 14,26 13.5,26 13,26 12.625,25.875 12.25,25.75 12,25.5 11.75,25.25 11.5,25 11.25,24.75 11,24.5 10.75,24.25 10.5,24 10.25,23.75 10,23.5 9.75,23.25 9.5,23 9.25,22.75 9.125,22.375 9,22 9,21.5 9,21 9.375,20.875 9.75,20.75 9.875,20.375 L 10,20 9.90625,20.28125 9.8125,20.5625 9.875,20.375 Q 9.9375,20.1875 9.9375,20 V 19.8125 19.90625 20 l 0.40625,-0.125 Q 10.75,19.75 11,19.5"
         id="path10556" />
      <path
         style="fill:#df824d;fill-opacity:1"
         d="M 18,12.5 Q 18.25,12.25 18.625,12.125 19,12 19.5,12 q 0.5,0 1,0 0.5,0 1.03125,0 H 22.0625 V 11.90625 11.8125 12 q 0,0.1875 0.0625,0.375 L 22.1875,12.5625 22.09375,12.28125 22,12 22.125,12.375 Q 22.25,12.75 22.5,13 q 0.25,0.25 0.5,0.5 0.25,0.25 0.5,0.5 0.25,0.25 0.375,0.625 Q 24,15 24,15.5 q 0,0.5 0,1 0,0.5 -0.125,0.875 Q 23.75,17.75 23.5,18 23.25,18.25 23,18.5 22.75,18.75 22.5,19 22.25,19.25 22,19.5 21.75,19.75 21.5,20 21.25,20.25 21,20.5 20.75,20.75 20.5,21 20.25,21.25 20,21.5 19.75,21.75 19.359375,21.890625 L 18.96875,22.03125 18.984375,22.140625 19,22.25 18.96875,22.03125 Q 18.9375,21.8125 18.875,21.625 L 18.8125,21.4375 18.90625,21.71875 19,22 18.875,21.625 Q 18.75,21.25 18.5,21 18.25,20.75 18,20.5 17.75,20.25 17.5,20 17.25,19.75 17,19.5 16.75,19.25 16.375,19.125 16,19 15.5,19 q -0.5,0 -1,0 -0.5,0 -1,0 -0.5,0 -1,0 Q 12,19 11.625,19.125 11.25,19.25 11,19.5 10.75,19.75 10.34375,19.875 L 9.9375,20 V 20.09375 20.1875 20 q 0,-0.1875 -0.0625,-0.375 L 9.8125,19.4375 9.90625,19.71875 10,20 9.875,19.625 Q 9.75,19.25 9.5,19 9.25,18.75 9,18.5 8.75,18.25 8.5,18 8.25,17.75 8.125,17.375 8,17 8,16.5 8,16 8,15.5 V 15 15.375 15.75 15.5 Q 8,15.25 7.96875,15.03125 L 7.9375,14.8125 7.953125,14.921875 7.96875,15.03125 8.484375,15.015625 Q 9,15 9.5,15 q 0.5,0 1,0 0.5,0 1,0 0.5,0 1,0 0.5,0 1,0 0.5,0 1,0 0.5,0 0.875,-0.125 Q 15.75,14.75 16,14.5 16.25,14.25 16.5,14 16.75,13.75 17,13.5 17.25,13.25 17.5,13 17.75,12.75 18,12.5"
         id="path10554" />
      <path
         style="fill:#af3a30;fill-opacity:1"
         d="m 22.125,11.625 q 0.125,-0.375 0.5,-0.5 L 23,11 22.71875,11.09375 22.4375,11.1875 22.625,11.125 q 0.1875,-0.0625 0.28125,-0.21875 L 23,10.75 l -0.04687,0.07813 -0.04687,0.07813 0.546875,0.04687 Q 24,11 24.5,11 25,11 25.375,11.125 25.75,11.25 26,11.5 q 0.25,0.25 0.5,0.5 0.25,0.25 0.5,0.5 0.25,0.25 0.5,0.5 0.25,0.25 0.5,0.5 0.25,0.25 0.5,0.5 0.25,0.25 0.375,0.625 Q 29,15 29,15.5 q 0,0.5 0,1 0,0.5 0,1 0,0.5 -0.125,0.875 Q 28.75,18.75 28.5,19 28.25,19.25 28,19.5 27.75,19.75 27.5,20 27.25,20.25 27,20.5 26.75,20.75 26.5,21 26.25,21.25 26,21.5 25.75,21.75 25.5,22 25.25,22.25 25,22.5 24.75,22.75 24.375,22.875 24,23 23.5,23 23,23 22.625,23.125 22.25,23.25 22,23.5 21.75,23.75 21.5,24 21.25,24.25 21.125,24.625 21,25 20.875,25.375 20.75,25.75 20.5,26 20.25,26.25 20,26.5 19.75,26.75 19.5,27 19.25,27.25 19,27.5 18.75,27.75 18.5,28 18.25,28.25 18,28.5 17.75,28.75 17.375,28.875 17,29 16.5,29 q -0.5,0 -1,0 -0.5,0 -1,0 -0.5,0 -1,0 -0.5,0 -1,0 -0.5,0 -1,0 Q 11,29 10.625,28.875 10.25,28.75 10,28.5 9.75,28.25 9.5,28 9.25,27.75 9,27.5 8.75,27.25 8.5,27 8.25,26.75 8,26.5 7.75,26.25 7.5,26 7.25,25.75 7.125,25.375 7,25 7,24.5 7,24 7,23.5 7,23 7.125,22.625 7.25,22.25 7.5,22 7.75,21.75 8,21.5 8.25,21.25 8.671875,21.171875 L 9.09375,21.09375 9.140625,21.015625 9.1875,20.9375 9.09375,21.09375 Q 9,21.25 9,21.5 V 21.75 21.375 21 21.5 Q 9,22 9.125,22.375 9.25,22.75 9.5,23 q 0.25,0.25 0.5,0.5 0.25,0.25 0.5,0.5 0.25,0.25 0.5,0.5 0.25,0.25 0.5,0.5 0.25,0.25 0.5,0.5 0.25,0.25 0.625,0.375 Q 13,26 13.5,26 q 0.5,0 1,0 0.5,0 1,0 0.5,0 0.875,-0.125 Q 16.75,25.75 17,25.5 17.25,25.25 17.5,25 17.75,24.75 18,24.5 18.25,24.25 18.5,24 18.75,23.75 18.875,23.375 19,23 19,22.5 V 22 22.375 22.75 22.5 q 0,-0.25 -0.03125,-0.46875 l -0.03125,-0.21875 0.01563,0.109375 0.01563,0.109375 0.390625,-0.140625 Q 19.75,21.75 20,21.5 20.25,21.25 20.5,21 20.75,20.75 21,20.5 21.25,20.25 21.5,20 21.75,19.75 22,19.5 22.25,19.25 22.5,19 22.75,18.75 23,18.5 23.25,18.25 23.5,18 23.75,17.75 23.875,17.375 24,17 24,16.5 24,16 24,15.5 24,15 23.875,14.625 23.75,14.25 23.5,14 23.25,13.75 23,13.5 22.75,13.25 22.5,13 22.25,12.75 22.125,12.375 22,12 22.125,11.625"
         id="path10552" />
      <path
         style="fill:#f6bb64;fill-opacity:1"
         d="M 12,4.5 Q 12.25,4.25 12.625,4.125 13,4 13.5,4 q 0.5,0 1,0 0.5,0 1,0 0.5,0 1,0 0.5,0 1,0 Q 18,4 18.375,4.125 18.75,4.25 19,4.5 19.25,4.75 19.5,5 19.75,5.25 20,5.5 20.25,5.75 20.5,6 20.75,6.25 21,6.5 21.25,6.75 21.5,7 21.75,7.25 22,7.5 22.25,7.75 22.5,8 22.75,8.25 22.875,8.625 23,9 23,9.5 q 0,0.5 0,1 0,0.5 -0.375,0.625 -0.375,0.125 -0.5,0.5 L 22,12 22.09375,11.71875 22.1875,11.4375 22.125,11.625 Q 22.0625,11.8125 22.0625,12 V 12.1875 12.09375 12 H 21.53125 Q 21,12 20.5,12 20,12 19.5,12 19,12 18.625,12.125 18.25,12.25 18,12.5 17.75,12.75 17.5,13 17.25,13.25 17,13.5 16.75,13.75 16.5,14 16.25,14.25 16,14.5 15.75,14.75 15.375,14.875 15,15 14.5,15 q -0.5,0 -1,0 -0.5,0 -1,0 -0.5,0 -1,0 -0.5,0 -1,0 -0.5,0 -1,0 Q 9,15 8.484375,15.01563 L 7.96875,15.03125 7.984375,15.140625 8,15.25 7.96875,15.03125 Q 7.9375,14.8125 7.875,14.625 L 7.8125,14.4375 7.90625,14.71875 8,15 7.875,14.625 Q 7.75,14.25 7.5,14 7.25,13.75 7,13.5 6.75,13.25 6.5,13 6.25,12.75 6.125,12.375 6,12 6,11.5 6,11 6.125,10.625 6.25,10.25 6.5,10 6.75,9.75 7,9.5 7.25,9.25 7.5,9 7.75,8.75 8,8.5 8.25,8.25 8.5,8 8.75,7.75 9,7.5 9.25,7.25 9.5,7 9.75,6.75 10,6.5 10.25,6.25 10.5,6 10.75,5.75 11,5.5 11.25,5.25 11.5,5 11.75,4.75 12,4.5"
         id="path10550" />
      <path
         style="fill:#000000;fill-opacity:0"
         d="M 0,0.5 V 0 H 0.5 1 1.5 2 2.5 3 3.5 4 4.5 5 5.5 6 6.5 7 7.5 8 8.5 9 9.5 10 10.5 11 11.5 12 12.5 13 13.5 14 14.5 15 15.5 16 16.5 17 17.5 18 18.5 19 19.5 20 20.5 21 21.5 22 22.5 23 23.5 24 24.5 25 25.5 26 26.5 27 27.5 28 28.5 29 29.5 30 30.5 31 31.5 32 V 0.5 1 1.5 2 2.5 3 3.5 4 4.5 5 5.5 6 6.5 7 7.5 8 8.5 9 9.5 10 10.5 11 11.5 12 12.5 13 13.5 14 14.5 15 15.5 16 16.5 17 17.5 18 18.5 19 19.5 20 20.5 21 21.5 22 22.5 23 23.5 24 24.5 25 25.5 26 26.5 27 27.5 28 28.5 29 29.5 30 30.5 31 31.5 32 H 31.5 31 30.5 30 29.5 29 28.5 28 27.5 27 26.5 26 25.5 25 24.5 24 23.5 23 22.5 22 21.5 21 20.5 20 19.5 19 18.5 18 17.5 17 16.5 16 15.5 15 14.5 14 13.5 13 12.5 12 11.5 11 10.5 10 9.5 9 8.5 8 7.5 7 6.5 6 5.5 5 4.5 4 3.5 3 2.5 2 1.5 1 0.5 0 V 31.5 31 30.5 30 29.5 29 28.5 28 27.5 27 26.5 26 25.5 25 24.5 24 23.5 23 22.5 22 21.5 21 20.5 20 19.5 19 18.5 18 17.5 17 16.5 16 15.5 15 14.5 14 13.5 13 12.5 12 11.5 11 10.5 10 9.5 9 8.5 8 7.5 7 6.5 6 5.5 5 4.5 4 3.5 3 2.5 2 1.5 1 0.5 M 16.5,29 Q 17,29 17.375,28.875 17.75,28.75 18,28.5 18.25,28.25 18.5,28 18.75,27.75 19,27.5 19.25,27.25 19.5,27 19.75,26.75 20,26.5 20.25,26.25 20.5,26 20.75,25.75 20.875,25.375 21,25 21.125,24.625 21.25,24.25 21.5,24 21.75,23.75 22,23.5 22.25,23.25 22.625,23.125 23,23 23.5,23 24,23 24.375,22.875 24.75,22.75 25,22.5 25.25,22.25 25.5,22 25.75,21.75 26,21.5 26.25,21.25 26.5,21 26.75,20.75 27,20.5 27.25,20.25 27.5,20 27.75,19.75 28,19.5 28.25,19.25 28.5,19 28.75,18.75 28.875,18.375 29,18 29,17.5 29,17 29,16.5 29,16 29,15.5 29,15 28.875,14.625 28.75,14.25 28.5,14 28.25,13.75 28,13.5 27.75,13.25 27.5,13 27.25,12.75 27,12.5 26.75,12.25 26.5,12 26.25,11.75 26,11.5 25.75,11.25 25.375,11.125 25,11 24.5,11 24,11 23.453125,10.953125 l -0.546875,-0.04687 -0.04687,0.07813 -0.04687,0.07813 0.09375,-0.15625 Q 23,10.75 23,10.5 V 10.25 10.625 11 10.5 Q 23,10 23,9.5 23,9 22.875,8.625 22.75,8.25 22.5,8 22.25,7.75 22,7.5 21.75,7.25 21.5,7 21.25,6.75 21,6.5 20.75,6.25 20.5,6 20.25,5.75 20,5.5 19.75,5.25 19.5,5 19.25,4.75 19,4.5 18.75,4.25 18.375,4.125 18,4 17.5,4 17,4 16.5,4 16,4 15.5,4 15,4 14.5,4 14,4 13.5,4 13,4 12.625,4.125 12.25,4.25 12,4.5 11.75,4.75 11.5,5 11.25,5.25 11,5.5 10.75,5.75 10.5,6 10.25,6.25 10,6.5 9.75,6.75 9.5,7 9.25,7.25 9,7.5 8.75,7.75 8.5,8 8.25,8.25 8,8.5 7.75,8.75 7.5,9 7.25,9.25 7,9.5 6.75,9.75 6.5,10 6.25,10.25 6.125,10.625 6,11 6,11.5 6,12 6.125,12.375 6.25,12.75 6.5,13 6.75,13.25 7,13.5 7.25,13.75 7.5,14 7.75,14.25 7.875,14.625 8,15 8,15.5 8,16 8,16.5 8,17 8.125,17.375 8.25,17.75 8.5,18 q 0.25,0.25 0.5,0.5 0.25,0.25 0.5,0.5 0.25,0.25 0.375,0.625 0.125,0.375 0,0.75 -0.125,0.375 -0.5,0.5 L 9,21 9.28125,20.90625 9.5625,20.8125 9.375,20.875 Q 9.1875,20.9375 9.09375,21.09375 L 9,21.25 9.046875,21.171875 9.09375,21.09375 8.671875,21.171875 Q 8.25,21.25 8,21.5 7.75,21.75 7.5,22 7.25,22.25 7.125,22.625 7,23 7,23.5 7,24 7,24.5 7,25 7.125,25.375 7.25,25.75 7.5,26 q 0.25,0.25 0.5,0.5 0.25,0.25 0.5,0.5 0.25,0.25 0.5,0.5 0.25,0.25 0.5,0.5 0.25,0.25 0.5,0.5 0.25,0.25 0.625,0.375 Q 11,29 11.5,29 q 0.5,0 1,0 0.5,0 1,0 0.5,0 1,0 0.5,0 1,0 0.5,0 1,0"
         id="path10548" />
    </g>
  </g>
</svg>

<svg width="32" height="32" xmlns="http://www.w3.org/2000/svg"><path style="fill:#f6bb64;fill-opacity:1" d="m11 19.5.6-.4.9-.1h3l.9.1q.4.1.6.4l.5.5.5.5.5.5.4.6.1.9-.1.9q-.1.4-.4.6l-.5.5-.5.5-.5.5-.6.4-.9.1h-2l-.9-.1-.6-.4-.5-.5-.5-.5-.5-.5-.5-.5-.5-.5-.4-.6-.1-.9q0-.5.4-.6.3-.1.5-.5l.1-.4v.3l-.2.3v-.2l.1-.4v-.2.2l.4-.1q.4-.1.7-.4"/><path style="fill:#df824d;fill-opacity:1" d="m18 12.5.6-.4.9-.1h2.6v-.2.8-.3L22 12l.1.4.4.6.5.5.5.5.4.6.1.9v1l-.1.9q-.1.4-.4.6l-.5.5-.5.5-.5.5-.5.5-.5.5-.5.5-.5.5-.6.4-.4.1v.2-.2l-.1-.4v-.2.3l.1.3-.1-.4q-.1-.4-.4-.6l-.5-.5-.5-.5-.5-.5-.6-.4-.9-.1h-3l-.9.1-.6.4q-.3.3-.7.4l-.4.1v.2-.8.3l.1.3-.1-.4-.4-.6-.5-.5-.5-.5-.4-.6-.1-.9V15v.7V14.8v.2h6.5l.9-.1.6-.4.5-.5.5-.5.5-.5.5-.5"/><path style="fill:#af3a30;fill-opacity:1" d="M22.1 11.6q.1-.3.5-.5l.4-.1h-.3l-.3.2h.2l.3-.3.1-.2v.2h.5l1 .1.9.1.6.4.5.5.5.5.5.5.5.5.5.5.4.6.1.9v2l-.1.9q-.1.4-.4.6l-.5.5-.5.5-.5.5-.5.5-.5.5-.5.5-.5.5-.6.4-.9.1-.9.1q-.4.1-.6.4l-.5.5-.4.6-.2.8q-.1.4-.4.6l-.5.5-.5.5-.5.5-.5.5-.5.5-.6.4-.9.1h-5l-.9-.1-.6-.4-.5-.5-.5-.5-.5-.5-.5-.5-.5-.5-.4-.6-.1-.9v-1l.1-.9.4-.6.5-.5q.3-.3.7-.3L9 21v-.2.2l-.1.4v.3-.8.5l.1.9.4.6.5.5.5.5.5.5.5.5.5.5.6.4.9.1h2l.9-.1q.4-.1.6-.4l.5-.5.5-.5.5-.5.4-.6.1-.9V22v.8-1 .2l.4-.1q.4-.1.6-.4l.5-.5.5-.5.5-.5.5-.5.5-.5.5-.5.5-.5.4-.6.1-.9v-1l-.1-.9-.4-.6-.5-.5-.5-.5-.4-.6q-.1-.4 0-.8"/><path style="fill:#f6bb64;fill-opacity:1" d="m12 4.5.6-.4.9-.1h4l.9.1.6.4.5.5.5.5.5.5.5.5.5.5.5.5.5.5.4.6.1.9v1q0 .5-.4.6-.4.2-.5.5l-.1.4v-.3l.2-.3v.2l-.1.4v.2-.2h-2.6l-.9.1-.6.4-.5.5-.5.5-.5.5-.5.5-.6.4-.9.1H8V15.3 15l-.1-.4v-.2.3l.1.3-.1-.4-.4-.6-.5-.5-.5-.5-.4-.6-.1-.9.1-.9.4-.6.5-.5.5-.5.5-.5.5-.5.5-.5.5-.5.5-.5.5-.5.5-.5.5-.5.5-.5"/><path style="fill:#000;fill-opacity:0" d="M0 .5V0h32v32H0V.5M16.5 29l.9-.1q.4-.1.6-.4l.5-.5.5-.5.5-.5.5-.5.5-.5.4-.6.2-.8q.1-.4.4-.6l.5-.5.6-.4.9-.1.9-.1q.4-.1.6-.4l.5-.5.5-.5.5-.5.5-.5.5-.5.5-.5.5-.5.4-.6.1-.9v-2l-.1-.9-.4-.6-.5-.5-.5-.5-.5-.5-.5-.5-.5-.5-.6-.4-.9-.1h-1.6l.1-.5v-.3.8-1.5l-.1-.9-.4-.6-.5-.5-.5-.5-.5-.5-.5-.5-.5-.5-.5-.5-.5-.5-.6-.4-.9-.1h-4l-.9.1-.6.4-.5.5-.5.5-.5.5-.5.5-.5.5-.5.5-.5.5-.5.5-.5.5-.5.5-.5.5-.4.6-.1.9.1.9.4.6.5.5.5.5.4.6.1.9v1l.1.9.4.6.5.5.5.5.4.6q.1.4 0 .8-.2.4-.5.5L9 21h.3l.3-.2h-.2l-.3.3-.1.1V21h-.3q-.4.1-.7.4l-.5.5-.4.6-.1.9v1l.1.9.4.6.5.5.5.5.5.5.5.5.5.5.6.4.9.1h5" fill="none"/></svg>
